X: 36994
T: Siar Go HInis Bearachain
R: waltz
M: 3/4
K: Adorian
|:AG|E2A2A2|A3 B AG|E2D2B,2|D3 E FA|G3 B AG|E2D3 E|
GE DB,A,B,|G,3 B, DB,|A,3 B, DE|D4 EF|G3 E GA|
B4 de|d3 B AB|GE DE DB,|A,6|z4:|
|:EF|A3 B de|G4 AB|c3 d ef|g3 a ag|e2 d3 e|
ga b2 ag|(a6|a4) eg|ab g2 ag|eg G2 dB|
AB A2 GE|G3 B de|d3 B AB|GE DE DB,|A,6|z4:|

